docs/getting-started/download-app/android.svg

<svg height="41" viewBox="0 0 136 41" width="136" xmlns="http://www.w3.org/2000/svg" xmlns:xlink="http://www.w3.org/1999/xlink"><linearGradient id="a" x1="91.501625%" x2="-38.332818%" y1="4.963903%" y2="71.903394%"><stop offset="0" stop-color="#00a0ff"/><stop offset=".0066" stop-color="#00a1ff"/><stop offset=".2601" stop-color="#00beff"/><stop offset=".5122" stop-color="#00d2ff"/><stop offset=".7604" stop-color="#00dfff"/><stop offset="1" stop-color="#00e3ff"/></linearGradient><linearGradient id="b" x1="107.584239%" x2="-130.468788%" y1="50%" y2="50%"><stop offset="0" stop-color="#ffe000"/><stop offset=".4087" stop-color="#ffbd00"/><stop offset=".7754" stop-color="#ffa500"/><stop offset="1" stop-color="#ff9c00"/></linearGradient><linearGradient id="c" x1="86.246779%" x2="-50.137233%" y1="17.846077%" y2="194.808468%"><stop offset="0" stop-color="#ff3a44"/><stop offset="1" stop-color="#c31162"/></linearGradient><linearGradient id="d" x1="-18.809781%" x2="42.09517%" y1="-54.157265%" y2="24.865742%"><stop offset="0" stop-color="#32a071"/><stop offset=".0685" stop-color="#2da771"/><stop offset=".4762" stop-color="#15cf74"/><stop offset=".8009" stop-color="#06e775"/><stop offset="1" stop-color="#00f076"/></linearGradient><g fill="none" fill-rule="evenodd" transform="translate(.937819 .316406)"><path d="m130 40h-125c-2.75 0-5-2.25-5-5v-30c0-2.75 2.25-5 5-5h125c2.75 0 5 2.25 5 5v30c0 2.75-2.25 5-5 5z" fill="#000"/><path d="m130 .8c2.316 0 4.2 1.884 4.2 4.2v30c0 2.316-1.884 4.2-4.2 4.2h-125c-2.316 0-4.2-1.884-4.2-4.2v-30c0-2.316 1.884-4.2 4.2-4.2zm0-.8h-125c-2.75 0-5 2.25-5 5v30c0 2.75 2.25 5 5 5h125c2.75 0 5-2.25 5-5v-30c0-2.75-2.25-5-5-5z" fill="#a6a6a6"/><g fill="#fff" stroke="#fff" stroke-width=".2" transform="translate(41 6)"><path d="m6.418 4.243c0 .838-.248 1.505-.745 2.003-.564.592-1.3.888-2.204.888-.866 0-1.603-.3-2.208-.9-.606-.601-.909-1.345-.909-2.233 0-.889.303-1.633.909-2.233.605-.601 1.342-.901 2.208-.901.43 0 .841.084 1.231.252.391.168.704.391.938.67l-.527.528c-.397-.475-.944-.712-1.643-.712-.632 0-1.178.222-1.639.666s-.691 1.021-.691 1.73.23 1.286.691 1.73 1.007.666 1.639.666c.67 0 1.229-.223 1.676-.67.29-.291.458-.696.503-1.215h-2.179v-.721h2.907c.03.156.043.307.043.452z"/><path d="m11.028 1.737h-2.732v1.902h2.464v.721h-2.464v1.902h2.732v.738h-3.503v-6h3.503z"/><path d="m14.279 7h-.771v-5.263h-1.676v-.737h4.123v.737h-1.676z"/><path d="m18.938 7v-6h.771v6z"/><path d="m23.128 7h-.771v-5.263h-1.676v-.737h4.123v.737h-1.676z"/><path d="m32.609 6.225c-.59.607-1.323.909-2.2.909s-1.61-.303-2.199-.909c-.59-.606-.884-1.348-.884-2.225s.294-1.619.884-2.225c.589-.607 1.322-.91 2.199-.91.872 0 1.604.305 2.196.914s.888 1.349.888 2.221c0 .877-.295 1.619-.884 2.225zm-3.83-.503c.444.45.987.674 1.63.674s1.187-.225 1.63-.674c.444-.45.667-1.024.667-1.722s-.223-1.272-.667-1.722c-.443-.45-.987-.674-1.63-.674s-1.186.225-1.63.674c-.443.45-.666 1.024-.666 1.722s.223 1.272.666 1.722z"/><path d="m34.575 7v-6h.938l2.916 4.667h.033l-.033-1.156v-3.511h.771v6h-.805l-3.051-4.894h-.033l.033 1.156v3.738z"/></g><path d="m68.136 21.752c-2.352 0-4.269 1.788-4.269 4.253 0 2.449 1.917 4.253 4.269 4.253s4.269-1.804 4.269-4.253c0-2.465-1.917-4.253-4.269-4.253zm0 6.83c-1.289 0-2.401-1.063-2.401-2.578 0-1.53 1.112-2.578 2.401-2.578s2.4 1.047 2.4 2.578c0 1.515-1.111 2.578-2.4 2.578zm-9.313-6.83c-2.352 0-4.269 1.788-4.269 4.253 0 2.449 1.917 4.253 4.269 4.253s4.269-1.804 4.269-4.253c0-2.465-1.917-4.253-4.269-4.253zm0 6.83c-1.289 0-2.401-1.063-2.401-2.578 0-1.53 1.112-2.578 2.401-2.578s2.4 1.047 2.4 2.578c0 1.515-1.112 2.578-2.4 2.578zm-11.079-5.525v1.804h4.318c-.129 1.015-.467 1.756-.983 2.272-.628.628-1.611 1.321-3.335 1.321-2.658 0-4.736-2.143-4.736-4.801s2.078-4.801 4.736-4.801c1.434 0 2.481.564 3.254 1.289l1.273-1.273c-1.079-1.031-2.513-1.82-4.527-1.82-3.641 0-6.702 2.964-6.702 6.605s3.061 6.605 6.702 6.605c1.966 0 3.448-.644 4.608-1.853 1.192-1.192 1.563-2.868 1.563-4.221 0-.419-.032-.806-.097-1.128zm45.308 1.401c-.354-.951-1.434-2.706-3.641-2.706-2.191 0-4.011 1.724-4.011 4.253 0 2.384 1.804 4.253 4.221 4.253 1.949 0 3.077-1.192 3.544-1.885l-1.45-.967c-.483.709-1.144 1.176-2.094 1.176-.951 0-1.627-.435-2.062-1.289l5.687-2.352zm-5.8 1.418c-.048-1.643 1.273-2.481 2.223-2.481.741 0 1.369.37 1.579.902zm-4.623 4.124h1.869v-12.501h-1.869zm-3.062-7.298h-.064c-.419-.499-1.224-.95-2.239-.95-2.127 0-4.076 1.869-4.076 4.269 0 2.384 1.949 4.237 4.076 4.237 1.015 0 1.82-.451 2.239-.967h.064v.612c0 1.627-.87 2.497-2.272 2.497-1.144 0-1.853-.822-2.143-1.514l-1.627.677c.467 1.128 1.708 2.513 3.77 2.513 2.191 0 4.044-1.289 4.044-4.43v-7.636h-1.772zm-2.142 5.88c-1.289 0-2.368-1.079-2.368-2.562 0-1.498 1.079-2.594 2.368-2.594 1.273 0 2.272 1.095 2.272 2.594-.001 1.483-.999 2.562-2.272 2.562zm24.381-11.083h-4.471v12.501h1.866v-4.736h2.606c2.068 0 4.101-1.497 4.101-3.882s-2.034-3.883-4.102-3.883zm.048 6.025h-2.654v-4.285h2.654c1.395 0 2.187 1.155 2.187 2.143 0 .968-.792 2.142-2.187 2.142zm11.532-1.795c-1.351 0-2.75.595-3.329 1.914l1.657.692c.354-.692 1.013-.917 1.705-.917.965 0 1.946.579 1.962 1.608v.129c-.338-.193-1.062-.483-1.946-.483-1.785 0-3.603.981-3.603 2.815 0 1.673 1.464 2.75 3.104 2.75 1.255 0 1.946-.563 2.38-1.222h.064v.965h1.801v-4.793c0-2.22-1.656-3.458-3.795-3.458zm-.225 6.851c-.611 0-1.464-.306-1.464-1.062 0-.965 1.062-1.335 1.978-1.335.82 0 1.206.177 1.705.418-.145 1.159-1.142 1.979-2.219 1.979zm10.582-6.578-2.139 5.42h-.064l-2.219-5.42h-2.01l3.329 7.575-1.898 4.214h1.946l5.131-11.789zm-16.807 7.998h1.866v-12.501h-1.866z" fill="#fff"/><g transform="translate(9 7)"><path d="m1.435.538c-.291.308-.463.786-.463 1.405v22.116c0 .62.172 1.097.463 1.405l.074.072 12.389-12.389v-.146-.146l-12.389-12.39z" fill="url(#a)"/><path d="m18.028 17.278-4.129-4.131v-.146-.146l4.13-4.13.093.053 4.893 2.78c1.398.794 1.398 2.093 0 2.888l-4.893 2.78z" fill="url(#b)"/><path d="m18.122 17.225-4.223-4.224-12.464 12.463c.461.488 1.221.548 2.078.061z" fill="url(#c)"/><path d="m18.122 8.777-14.608-8.3c-.857-.487-1.617-.426-2.078.061l12.463 12.463z" fill="url(#d)"/><g fill="#000" transform="translate(0 17)"><path d="m18.029.132-14.515 8.247c-.812.461-1.538.431-2.004.011l-.074.075.074.072c.466.42 1.192.451 2.004-.011l14.608-8.3z" opacity=".2"/><path d="m1.435 8.318c-.291-.308-.463-.786-.463-1.405v.146c0 .619.172 1.097.463 1.405l.074-.075z" opacity=".12"/></g><path d="m23.015 14.299-4.986 2.833.093.093 4.893-2.78c.699-.397 1.048-.92 1.048-1.443-.059.473-.415.937-1.048 1.297z" fill="#000" opacity=".12"/><path d="m3.514.623 19.501 11.08c.634.36.989.824 1.048 1.298 0-.523-.349-1.047-1.048-1.444l-19.501-11.08c-1.398-.794-2.541-.135-2.541 1.466v.146c0-1.6 1.143-2.26 2.541-1.466z" fill="#fff" opacity=".25"/></g></g></svg>

<?xml version="1.0" encoding="UTF-8" standalone="no"?>
<svg width="136px" height="41px" viewBox="0 0 136 41" version="1.1" xmlns="http://www.w3.org/2000/svg" xmlns:xlink="http://www.w3.org/1999/xlink">
    <!-- Generator: Sketch 39.1 (31720) - http://www.bohemiancoding.com/sketch -->
    <title>app_store_icons_google</title>
    <desc>Created with Sketch.</desc>
    <defs>
        <linearGradient x1="91.5016246%" y1="4.96390252%" x2="-38.3328176%" y2="71.9033944%" id="linearGradient-1">
            <stop stop-color="#00A0FF" offset="0%"></stop>
            <stop stop-color="#00A1FF" offset="0.66%"></stop>
            <stop stop-color="#00BEFF" offset="26.01%"></stop>
            <stop stop-color="#00D2FF" offset="51.22%"></stop>
            <stop stop-color="#00DFFF" offset="76.04%"></stop>
            <stop stop-color="#00E3FF" offset="100%"></stop>
        </linearGradient>
        <linearGradient x1="107.584239%" y1="50%" x2="-130.468788%" y2="50%" id="linearGradient-2">
            <stop stop-color="#FFE000" offset="0%"></stop>
            <stop stop-color="#FFBD00" offset="40.87%"></stop>
            <stop stop-color="#FFA500" offset="77.54%"></stop>
            <stop stop-color="#FF9C00" offset="100%"></stop>
        </linearGradient>
        <linearGradient x1="86.2467789%" y1="17.8460774%" x2="-50.1372326%" y2="194.808468%" id="linearGradient-3">
            <stop stop-color="#FF3A44" offset="0%"></stop>
            <stop stop-color="#C31162" offset="100%"></stop>
        </linearGradient>
        <linearGradient x1="-18.8097807%" y1="-54.1572645%" x2="42.0951696%" y2="24.8657419%" id="linearGradient-4">
            <stop stop-color="#32A071" offset="0%"></stop>
            <stop stop-color="#2DA771" offset="6.85%"></stop>
            <stop stop-color="#15CF74" offset="47.62%"></stop>
            <stop stop-color="#06E775" offset="80.09%"></stop>
            <stop stop-color="#00F076" offset="100%"></stop>
        </linearGradient>
    </defs>
    <g id="Page-1" stroke="none" stroke-width="1" fill="none" fill-rule="evenodd">
        <g id="app_store_icons" transform="translate(-244.000000, -30.000000)">
            <g id="app_store_icons_google" transform="translate(244.937819, 30.316406)">
                <path d="M130,40 L5,40 C2.25,40 0,37.75 0,35 L0,5 C0,2.25 2.25,0 5,0 L130,0 C132.75,0 135,2.25 135,5 L135,35 C135,37.75 132.75,40 130,40 L130,40 Z" id="Shape" fill="#000000"></path>
                <path d="M130,0.8 C132.316,0.8 134.2,2.684 134.2,5 L134.2,35 C134.2,37.316 132.316,39.2 130,39.2 L5,39.2 C2.684,39.2 0.8,37.316 0.8,35 L0.8,5 C0.8,2.684 2.684,0.8 5,0.8 L130,0.8 L130,0.8 Z M130,0 L5,0 C2.25,0 0,2.25 0,5 L0,35 C0,37.75 2.25,40 5,40 L130,40 C132.75,40 135,37.75 135,35 L135,5 C135,2.25 132.75,0 130,0 L130,0 L130,0 Z" id="Shape" fill="#A6A6A6"></path>
                <g id="Group" transform="translate(41.000000, 6.000000)" stroke="#FFFFFF" stroke-width="0.2" fill="#FFFFFF">
                    <path d="M6.418,4.243 C6.418,5.081 6.17,5.748 5.673,6.246 C5.109,6.838 4.373,7.134 3.469,7.134 C2.603,7.134 1.866,6.834 1.261,6.234 C0.655,5.633 0.352,4.889 0.352,4.001 C0.352,3.112 0.655,2.368 1.261,1.768 C1.866,1.167 2.603,0.867 3.469,0.867 C3.899,0.867 4.31,0.951 4.7,1.119 C5.091,1.287 5.404,1.51 5.638,1.789 L5.111,2.317 C4.714,1.842 4.167,1.605 3.468,1.605 C2.836,1.605 2.29,1.827 1.829,2.271 C1.368,2.715 1.138,3.292 1.138,4.001 C1.138,4.71 1.368,5.287 1.829,5.731 C2.29,6.175 2.836,6.397 3.468,6.397 C4.138,6.397 4.697,6.174 5.144,5.727 C5.434,5.436 5.602,5.031 5.647,4.512 L3.468,4.512 L3.468,3.791 L6.375,3.791 C6.405,3.947 6.418,4.098 6.418,4.243 L6.418,4.243 Z" id="Shape"></path>
                    <polygon id="Shape" points="11.028 1.737 8.296 1.737 8.296 3.639 10.76 3.639 10.76 4.36 8.296 4.36 8.296 6.262 11.028 6.262 11.028 7 7.525 7 7.525 1 11.028 1"></polygon>
                    <path d="M14.279,7 L13.508,7 L13.508,1.737 L11.832,1.737 L11.832,1 L15.955,1 L15.955,1.737 L14.279,1.737 L14.279,7 L14.279,7 Z" id="Shape"></path>
                    <polygon id="Shape" points="18.938 7 18.938 1 19.709 1 19.709 7"></polygon>
                    <path d="M23.128,7 L22.357,7 L22.357,1.737 L20.681,1.737 L20.681,1 L24.804,1 L24.804,1.737 L23.128,1.737 L23.128,7 L23.128,7 Z" id="Shape"></path>
                    <path d="M32.609,6.225 C32.019,6.832 31.286,7.134 30.409,7.134 C29.532,7.134 28.799,6.831 28.21,6.225 C27.62,5.619 27.326,4.877 27.326,4 C27.326,3.123 27.62,2.381 28.21,1.775 C28.799,1.168 29.532,0.865 30.409,0.865 C31.281,0.865 32.013,1.17 32.605,1.779 C33.197,2.388 33.493,3.128 33.493,4 C33.493,4.877 33.198,5.619 32.609,6.225 L32.609,6.225 Z M28.779,5.722 C29.223,6.172 29.766,6.396 30.409,6.396 C31.052,6.396 31.596,6.171 32.039,5.722 C32.483,5.272 32.706,4.698 32.706,4 C32.706,3.302 32.483,2.728 32.039,2.278 C31.596,1.828 31.052,1.604 30.409,1.604 C29.766,1.604 29.223,1.829 28.779,2.278 C28.336,2.728 28.113,3.302 28.113,4 C28.113,4.698 28.336,5.272 28.779,5.722 L28.779,5.722 Z" id="Shape"></path>
                    <polygon id="Shape" points="34.575 7 34.575 1 35.513 1 38.429 5.667 38.462 5.667 38.429 4.511 38.429 1 39.2 1 39.2 7 38.395 7 35.344 2.106 35.311 2.106 35.344 3.262 35.344 7"></polygon>
                </g>
                <path d="M68.136,21.752 C65.784,21.752 63.867,23.54 63.867,26.005 C63.867,28.454 65.784,30.258 68.136,30.258 C70.488,30.258 72.405,28.454 72.405,26.005 C72.405,23.54 70.488,21.752 68.136,21.752 L68.136,21.752 Z M68.136,28.582 C66.847,28.582 65.735,27.519 65.735,26.004 C65.735,24.474 66.847,23.426 68.136,23.426 C69.425,23.426 70.536,24.473 70.536,26.004 C70.536,27.519 69.425,28.582 68.136,28.582 L68.136,28.582 Z M58.823,21.752 C56.471,21.752 54.554,23.54 54.554,26.005 C54.554,28.454 56.471,30.258 58.823,30.258 C61.175,30.258 63.092,28.454 63.092,26.005 C63.092,23.54 61.175,21.752 58.823,21.752 L58.823,21.752 Z M58.823,28.582 C57.534,28.582 56.422,27.519 56.422,26.004 C56.422,24.474 57.534,23.426 58.823,23.426 C60.112,23.426 61.223,24.473 61.223,26.004 C61.223,27.519 60.111,28.582 58.823,28.582 L58.823,28.582 Z M47.744,23.057 L47.744,24.861 L52.062,24.861 C51.933,25.876 51.595,26.617 51.079,27.133 C50.451,27.761 49.468,28.454 47.744,28.454 C45.086,28.454 43.008,26.311 43.008,23.653 C43.008,20.995 45.086,18.852 47.744,18.852 C49.178,18.852 50.225,19.416 50.998,20.141 L52.271,18.868 C51.192,17.837 49.758,17.048 47.744,17.048 C44.103,17.048 41.042,20.012 41.042,23.653 C41.042,27.294 44.103,30.258 47.744,30.258 C49.71,30.258 51.192,29.614 52.352,28.405 C53.544,27.213 53.915,25.537 53.915,24.184 C53.915,23.765 53.883,23.378 53.818,23.056 L47.744,23.057 L47.744,23.057 L47.744,23.057 Z M93.052,24.458 C92.698,23.507 91.618,21.752 89.411,21.752 C87.22,21.752 85.4,23.476 85.4,26.005 C85.4,28.389 87.204,30.258 89.621,30.258 C91.57,30.258 92.698,29.066 93.165,28.373 L91.715,27.406 C91.232,28.115 90.571,28.582 89.621,28.582 C88.67,28.582 87.994,28.147 87.559,27.293 L93.246,24.941 L93.052,24.458 L93.052,24.458 Z M87.252,25.876 C87.204,24.233 88.525,23.395 89.475,23.395 C90.216,23.395 90.844,23.765 91.054,24.297 L87.252,25.876 L87.252,25.876 Z M82.629,30 L84.498,30 L84.498,17.499 L82.629,17.499 L82.629,30 L82.629,30 Z M79.567,22.702 L79.503,22.702 C79.084,22.203 78.279,21.752 77.264,21.752 C75.137,21.752 73.188,23.621 73.188,26.021 C73.188,28.405 75.137,30.258 77.264,30.258 C78.279,30.258 79.084,29.807 79.503,29.291 L79.567,29.291 L79.567,29.903 C79.567,31.53 78.697,32.4 77.295,32.4 C76.151,32.4 75.442,31.578 75.152,30.886 L73.525,31.563 C73.992,32.691 75.233,34.076 77.295,34.076 C79.486,34.076 81.339,32.787 81.339,29.646 L81.339,22.01 L79.567,22.01 L79.567,22.702 L79.567,22.702 Z M77.425,28.582 C76.136,28.582 75.057,27.503 75.057,26.02 C75.057,24.522 76.136,23.426 77.425,23.426 C78.698,23.426 79.697,24.521 79.697,26.02 C79.696,27.503 78.698,28.582 77.425,28.582 L77.425,28.582 Z M101.806,17.499 L97.335,17.499 L97.335,30 L99.201,30 L99.201,25.264 L101.807,25.264 C103.875,25.264 105.908,23.767 105.908,21.382 C105.908,18.997 103.874,17.499 101.806,17.499 L101.806,17.499 Z M101.854,23.524 L99.2,23.524 L99.2,19.239 L101.854,19.239 C103.249,19.239 104.041,20.394 104.041,21.382 C104.041,22.35 103.249,23.524 101.854,23.524 L101.854,23.524 Z M113.386,21.729 C112.035,21.729 110.636,22.324 110.057,23.643 L111.714,24.335 C112.068,23.643 112.727,23.418 113.419,23.418 C114.384,23.418 115.365,23.997 115.381,25.026 L115.381,25.155 C115.043,24.962 114.319,24.672 113.435,24.672 C111.65,24.672 109.832,25.653 109.832,27.487 C109.832,29.16 111.296,30.237 112.936,30.237 C114.191,30.237 114.882,29.674 115.316,29.015 L115.38,29.015 L115.38,29.98 L117.181,29.98 L117.181,25.187 C117.181,22.967 115.525,21.729 113.386,21.729 L113.386,21.729 Z M113.161,28.58 C112.55,28.58 111.697,28.274 111.697,27.518 C111.697,26.553 112.759,26.183 113.675,26.183 C114.495,26.183 114.881,26.36 115.38,26.601 C115.235,27.76 114.238,28.58 113.161,28.58 L113.161,28.58 Z M123.743,22.002 L121.604,27.422 L121.54,27.422 L119.321,22.002 L117.311,22.002 L120.64,29.577 L118.742,33.791 L120.688,33.791 L125.819,22.002 L123.743,22.002 L123.743,22.002 Z M106.936,30 L108.802,30 L108.802,17.499 L106.936,17.499 L106.936,30 L106.936,30 Z" id="Shape" fill="#FFFFFF"></path>
                <g id="Group" transform="translate(9.000000, 7.000000)">
                    <path d="M1.435,0.538 C1.144,0.846 0.972,1.324 0.972,1.943 L0.972,24.059 C0.972,24.679 1.144,25.156 1.435,25.464 L1.509,25.536 L13.898,13.147 L13.898,13.001 L13.898,12.855 L1.509,0.465 L1.435,0.538 L1.435,0.538 Z" id="Shape" fill="url(#linearGradient-1)"></path>
                    <path d="M18.028,17.278 L13.899,13.147 L13.899,13.001 L13.899,12.855 L18.029,8.725 L18.122,8.778 L23.015,11.558 C24.413,12.352 24.413,13.651 23.015,14.446 L18.122,17.226 L18.028,17.278 L18.028,17.278 Z" id="Shape" fill="url(#linearGradient-2)"></path>
                    <path d="M18.122,17.225 L13.899,13.001 L1.435,25.464 C1.896,25.952 2.656,26.012 3.513,25.525 L18.122,17.225" id="Shape" fill="url(#linearGradient-3)"></path>
                    <path d="M18.122,8.777 L3.514,0.477 C2.657,-0.01 1.897,0.051 1.436,0.538 L13.899,13.001 L18.122,8.777 L18.122,8.777 Z" id="Shape" fill="url(#linearGradient-4)"></path>
                    <g transform="translate(0.000000, 17.000000)" id="Shape" fill="#000000">
                        <path d="M18.029,0.132 L3.514,8.379 C2.702,8.84 1.976,8.81 1.51,8.39 L1.51,8.39 L1.436,8.465 L1.436,8.465 L1.51,8.537 L1.51,8.537 C1.976,8.957 2.702,8.988 3.514,8.526 L18.122,0.226 L18.029,0.132 L18.029,0.132 Z" opacity="0.2"></path>
                        <path d="M1.435,8.318 C1.144,8.01 0.972,7.532 0.972,6.913 L0.972,7.059 C0.972,7.678 1.144,8.156 1.435,8.464 L1.509,8.389 L1.435,8.318 L1.435,8.318 Z" opacity="0.12"></path>
                    </g>
                    <path d="M23.015,14.299 L18.029,17.132 L18.122,17.225 L23.015,14.445 C23.714,14.048 24.063,13.525 24.063,13.002 L24.063,13.002 C24.004,13.475 23.648,13.939 23.015,14.299 L23.015,14.299 Z" id="Shape" fill="#000000" opacity="0.12"></path>
                    <path d="M3.514,0.623 L23.015,11.703 C23.649,12.063 24.004,12.527 24.063,13.001 L24.063,13.001 C24.063,12.478 23.714,11.954 23.015,11.557 L3.514,0.477 C2.116,-0.317 0.973,0.342 0.973,1.943 L0.973,2.089 C0.973,0.489 2.116,-0.171 3.514,0.623 L3.514,0.623 Z" id="Shape" fill="#FFFFFF" opacity="0.25"></path>
                </g>
            </g>
        </g>
    </g>
</svg>
